X: 20811
T: VEDRAI CARINO
Q: "Slow"
%R: waltz
B: "Edinburgh Repository of Music" v.2 p.81 #1
F: http://digital.nls.uk/special-collections-of-printed-music/pageturner.cfm?id=87776133
Z: 2015 John Chambers <jc:trillian.mit.edu>
M: 3/8
L: 1/8
K: D
|:\
ddd | {de}f>ed | .c(cd) | (cB)A |\
ddd | {de}f>ed | (de).c | (c2d) |\
(ef).d | f2e | (ef).d | (f2e) |
eee | e>dc | (cd).B | (AB).c |\
ddd | {de}f>ed | .c(cd) | (cB).A |\
ddd | {de}f>ed | (de).c | (c2d) :|

%%sep 2 1 500
%%sep 1 1 500

